X:1
T: the Silver Spire
M: C|
L: 1/8
R: reel
K: Dmaj
"^A"|: "D"D2FE DEFA | dcde fdAF | "G"G2BG \
[1 "D"F2AF | "Em"EFGE "A"DCB,A, :|\
[2 "D"FEDF | "A"EDCE "D"D4 "^B":: "A"A,B,CD EFGE |
"D"FDEF GABc | "G"dBBA "Bm/F#"Bcde | "Em"f2gf "A"e3c |\
| "D"d2fd "A"c2ec | "G"BcdB "D"AFDF \
| "G"G2BG "D"FEDF | "A"EDCE "D"D4 :| 
